dist/img/icons/reward/JS.svg

<svg width="46" height="50" viewBox="0 0 46 50" fill="none" xmlns="http://www.w3.org/2000/svg">
<path fill-rule="evenodd" clip-rule="evenodd" d="M22.6813 0C21.9648 0 21.2603 0.183599 20.635 0.533276H20.6375C14.4292 4.04161 8.22 7.54828 2.01 11.0533C1.40617 11.3824 0.901372 11.867 0.547945 12.457C0.194518 13.0469 0.00533068 13.7206 0 14.4083V35.5958C0.0104345 36.2958 0.209953 36.98 0.577434 37.5759C0.944915 38.1717 1.46668 38.6572 2.0875 38.9808C2.74217 39.3389 3.39009 39.7094 4.03796 40.08C5.15407 40.7183 6.27002 41.3566 7.42 41.9308C8.4682 42.4909 9.63236 42.7994 10.8204 42.832C12.0084 42.8645 13.1877 42.6202 14.265 42.1183C15.0717 41.6133 15.728 40.901 16.1656 40.0558C16.6031 39.2106 16.8058 38.2635 16.7525 37.3133C16.7605 32.8195 16.7593 28.3248 16.758 23.8296C16.7573 21.3326 16.7566 18.8354 16.7575 16.3383C16.7695 16.2619 16.7653 16.1839 16.7452 16.1093C16.725 16.0347 16.6894 15.9651 16.6406 15.9052C16.5917 15.8453 16.5308 15.7963 16.4618 15.7616C16.3928 15.7268 16.3172 15.7069 16.24 15.7033C15.4456 15.6908 14.6537 15.6958 13.8594 15.7008L13.8575 15.7008C13.784 15.6944 13.71 15.7036 13.6403 15.7278C13.5707 15.752 13.5068 15.7906 13.4531 15.841C13.3993 15.8915 13.3568 15.9528 13.3282 16.0208C13.2997 16.0888 13.2858 16.162 13.2875 16.2358C13.2822 19.9124 13.2832 23.5904 13.2842 27.2691C13.2851 30.5393 13.286 33.8101 13.2825 37.0808C13.2841 37.5601 13.1392 38.0284 12.867 38.423C12.5949 38.8176 12.2086 39.1195 11.76 39.2883C11.2432 39.4411 10.6999 39.4831 10.1657 39.4116C9.63152 39.3401 9.11843 39.1567 8.66 38.8733C7.005 37.9433 5.3525 37.0099 3.7025 36.0733C3.59293 36.0216 3.50183 35.9376 3.44149 35.8325C3.38114 35.7275 3.35445 35.6065 3.365 35.4858V14.5183C3.35366 14.3824 3.38549 14.2464 3.45597 14.1297C3.52645 14.013 3.63197 13.9215 3.7575 13.8683C9.9425 10.3766 16.1292 6.88744 22.3175 3.40078C22.4249 3.32704 22.5522 3.28757 22.6825 3.28757C22.8128 3.28757 22.9401 3.32704 23.0475 3.40078C29.2342 6.89078 35.4225 10.3791 41.6125 13.8658C41.7373 13.9205 41.8419 14.0127 41.9118 14.1297C41.9817 14.2466 42.0134 14.3825 42.0025 14.5183C42.0058 21.5083 42.005 28.4974 42 35.4858C42.0108 35.6069 41.9848 35.7284 41.9255 35.8346C41.8662 35.9407 41.7763 36.0265 41.6675 36.0808C35.5692 39.5174 29.4717 42.9591 23.375 46.4058C23.3363 46.4271 23.2966 46.4503 23.2561 46.474C22.993 46.6276 22.6946 46.8019 22.4 46.6308C21.4713 46.1055 20.5503 45.5684 19.6299 45.0318C18.9646 44.6439 18.2996 44.2562 17.6325 43.8733C17.5511 43.8108 17.4528 43.7741 17.3504 43.7679C17.2479 43.7616 17.1459 43.7861 17.0575 43.8383C16.3554 44.2497 15.6163 44.5945 14.85 44.8683C14.757 44.906 14.6582 44.9365 14.5588 44.9671C14.2895 45.0502 14.016 45.1345 13.8425 45.3683C14.1458 45.6983 14.5133 45.9629 14.9225 46.1458L20.5125 49.3758C21.129 49.7627 21.8379 49.9775 22.5656 49.9977C23.2932 50.0179 24.0129 49.8429 24.65 49.4908L43.28 38.9808C43.9008 38.6569 44.4226 38.1714 44.7905 37.5757C45.1583 36.9799 45.3585 36.2959 45.37 35.5958V14.4083C45.3642 13.7342 45.1815 13.0734 44.8401 12.4921C44.4988 11.9108 44.0108 11.4293 43.425 11.0958L24.7275 0.533276C24.1022 0.183599 23.3977 0 22.6813 0ZM34.0975 16.4407C31.5853 15.2809 28.7967 14.8537 26.0525 15.2082C24.0418 15.2912 22.1209 16.0637 20.6125 17.3957C19.9204 18.1422 19.4518 19.0681 19.26 20.0678C19.0682 21.0675 19.1609 22.101 19.5275 23.0507C19.8127 23.6875 20.2327 24.2548 20.7583 24.7136C21.284 25.1724 21.903 25.5117 22.5725 25.7082C24.2405 26.309 25.991 26.495 27.7424 26.681C29.3433 26.851 30.9449 27.0211 32.485 27.5082C33.1125 27.7207 33.8425 28.0457 34.0375 28.7457C34.1409 29.1645 34.133 29.6031 34.0146 30.018C33.8962 30.4328 33.6714 30.8095 33.3625 31.1107C32.0221 31.9439 30.4511 32.3283 28.8775 32.2082C26.9979 32.3916 25.1044 32.047 23.41 31.2132C23.026 30.9062 22.7089 30.5238 22.4784 30.0895C22.248 29.6552 22.109 29.1783 22.07 28.6882C22.0694 28.6149 22.0542 28.5424 22.0254 28.475C21.9966 28.4076 21.9547 28.3466 21.9022 28.2954C21.8496 28.2443 21.7875 28.2041 21.7193 28.1771C21.6511 28.1501 21.5783 28.1369 21.505 28.1382C20.7125 28.1282 19.9225 28.1307 19.13 28.1382C18.9919 28.1241 18.8539 28.1651 18.7458 28.2521C18.6377 28.3392 18.5682 28.4653 18.5525 28.6032C18.5075 29.4628 18.6529 30.3218 18.9783 31.1187C19.3037 31.9156 19.8011 32.6308 20.435 33.2132C22.0351 34.4626 23.9782 35.1943 26.005 35.3107C28.1169 35.5552 30.2541 35.4641 32.3375 35.0407C33.9373 34.7417 35.4039 33.9508 36.5325 32.7782C37.1563 32.0089 37.5745 31.0938 37.7476 30.1186C37.9208 29.1434 37.8433 28.1402 37.5225 27.2032C37.2529 26.5425 36.8356 25.9522 36.3026 25.4777C35.7696 25.0032 35.135 24.657 34.4475 24.4657C32.6474 23.8343 30.765 23.5849 28.8814 23.3354C27.4165 23.1414 25.9508 22.9472 24.5225 22.5732C24.4987 22.5657 24.4746 22.5583 24.4504 22.5507C23.8976 22.3788 23.2519 22.178 23.01 21.6032C22.864 21.181 22.854 20.7236 22.9813 20.2953C23.1087 19.8671 23.367 19.4895 23.72 19.2157C24.7451 18.6297 25.9123 18.339 27.0925 18.3757C28.6938 18.2254 30.3079 18.4567 31.8025 19.0507C32.2516 19.3147 32.6378 19.6733 32.9344 20.1015C33.231 20.5298 33.4308 21.0175 33.52 21.5307C33.5241 21.6825 33.5849 21.8272 33.6904 21.9364C33.7959 22.0456 33.9384 22.1114 34.09 22.1207C34.6506 22.1314 35.2112 22.1294 35.7727 22.1273C35.9975 22.1265 36.2224 22.1257 36.4475 22.1257C36.5837 22.1417 36.7212 22.1081 36.8346 22.0309C36.948 21.9538 37.0298 21.8383 37.065 21.7057C37.0718 20.6457 36.8016 19.6022 36.2811 18.6787C35.7606 17.7553 35.0079 16.9838 34.0975 16.4407Z" fill="#D6BD96"/>
</svg>

<svg width="46" height="50" fill="none" xmlns="http://www.w3.org/2000/svg"><path fill-rule="evenodd" clip-rule="evenodd" d="M22.681 0c-.716 0-1.42.184-2.046.533h.002C14.43 4.042 8.22 7.548 2.01 11.053A3.854 3.854 0 0 0 0 14.408v21.188a3.883 3.883 0 0 0 2.087 3.385c.655.358 1.303.728 1.951 1.099 1.116.638 2.232 1.277 3.382 1.85a7.661 7.661 0 0 0 6.845.188 5.318 5.318 0 0 0 2.488-4.805c.008-4.494.006-8.988.005-13.483v-7.492a.551.551 0 0 0-.518-.635c-.794-.012-1.586-.007-2.38-.002h-.002a.524.524 0 0 0-.57.535c-.006 3.676-.005 7.354-.004 11.033.001 3.27.002 6.541-.002 9.812a2.35 2.35 0 0 1-1.522 2.207 3.83 3.83 0 0 1-3.1-.415 1316.85 1316.85 0 0 1-4.957-2.8.592.592 0 0 1-.338-.587V14.518a.648.648 0 0 1 .392-.65c6.186-3.491 12.372-6.98 18.56-10.467a.645.645 0 0 1 .73 0c6.187 3.49 12.375 6.978 18.565 10.465a.655.655 0 0 1 .39.652c.004 6.99.003 13.98-.002 20.968a.605.605 0 0 1-.333.595 15348.824 15348.824 0 0 0-18.41 10.393c-.264.154-.562.328-.857.157-.929-.526-1.85-1.063-2.77-1.6-.665-.387-1.33-.775-1.997-1.158a.514.514 0 0 0-.575-.035 13.055 13.055 0 0 1-2.5 1.13c-.268.082-.542.166-.716.4.304.33.671.595 1.08.778l5.59 3.23a4.075 4.075 0 0 0 4.138.115l18.63-10.51a3.89 3.89 0 0 0 2.09-3.385V14.408a3.85 3.85 0 0 0-1.945-3.312L24.728.533A4.192 4.192 0 0 0 22.68 0Zm11.416 16.44a14.7 14.7 0 0 0-8.045-1.232 8.765 8.765 0 0 0-5.44 2.188 5.437 5.437 0 0 0-1.084 5.655 4.826 4.826 0 0 0 3.045 2.657c1.668.601 3.418.787 5.17.973 1.6.17 3.202.34 4.742.827.627.213 1.358.538 1.553 1.238a2.475 2.475 0 0 1-.675 2.365 7.425 7.425 0 0 1-4.485 1.097 10.15 10.15 0 0 1-5.468-.995 3.599 3.599 0 0 1-1.34-2.525.554.554 0 0 0-.565-.55c-.793-.01-1.582-.007-2.375 0a.527.527 0 0 0-.578.465 5.846 5.846 0 0 0 1.883 4.61 9.98 9.98 0 0 0 5.57 2.098c2.112.244 4.25.153 6.332-.27a7.815 7.815 0 0 0 4.195-2.263 5.845 5.845 0 0 0 .99-5.575 4.675 4.675 0 0 0-3.075-2.737c-1.8-.632-3.682-.881-5.566-1.13-1.465-.195-2.93-.389-4.358-.763l-.073-.022c-.552-.172-1.198-.373-1.44-.948a2.138 2.138 0 0 1 .71-2.387 6.395 6.395 0 0 1 3.373-.84c1.6-.15 3.215.08 4.71.675a3.59 3.59 0 0 1 1.717 2.48.607.607 0 0 0 .57.59c.56.01 1.121.008 1.683.006l.674-.001a.57.57 0 0 0 .618-.42 6.086 6.086 0 0 0-2.968-5.265Z" fill="#D6BD96"/></svg>
